Sources/FrostedUI/Resources/Icons.xcassets/shieldHalf24.imageset/shield-half-24.svg

<svg width="24" height="24" viewBox="0 0 24 24" fill="none" xmlns="http://www.w3.org/2000/svg" data-fui-icon="true">
  <path
    fill-rule="evenodd"
    clip-rule="evenodd"
    d="M19.804 4.56151L12.555 2.1445C12.376 2.0845 12.188 2.0555 12 2.0545C11.813 2.0545 11.626 2.0825 11.447 2.1425L4.19698 4.55951C4.01798 4.61951 3.85398 4.7055 3.70798 4.8145C3.27098 5.1385 3.00098 5.6545 3.00098 6.2195V11.9115C3.00098 11.9165 3.00098 11.9215 3.00098 11.9265C3.00498 14.6555 4.18698 16.6725 5.85898 18.2585C5.89698 18.2945 5.94198 18.3245 5.98098 18.3605C6.33498 18.6885 6.70798 18.9985 7.09598 19.2935C7.13798 19.3245 7.17598 19.3585 7.21798 19.3895C7.66898 19.7255 8.13898 20.0415 8.61497 20.3405C8.61998 20.3435 8.62497 20.3465 8.62997 20.3505C9.63297 20.9815 10.669 21.5405 11.644 22.0675C11.755 22.1275 11.877 22.1575 12 22.1575C12.123 22.1575 12.245 22.1275 12.356 22.0675C16.207 19.9895 21 17.4035 21 11.9125V6.2205C21 5.4675 20.52 4.80051 19.804 4.56151ZM19.5 11.9125C19.5 16.3605 15.59 18.6135 12 20.5555V3.5545C12.027 3.5545 12.053 3.5585 12.079 3.5675L19.329 5.9845C19.431 6.0185 19.5 6.1135 19.5 6.2205V11.9125Z"
    fill="currentColor"
  />
</svg>

<svg xmlns="http://www.w3.org/2000/svg" width="24" height="24" fill="none" data-fui-icon="true" viewBox="0 0 24 24"><path fill="currentColor" fill-rule="evenodd" d="m19.804 4.562-7.249-2.418a1.78 1.78 0 0 0-1.108-.002L4.197 4.56q-.27.09-.489.255c-.437.323-.707.84-.707 1.404v5.707c.004 2.73 1.186 4.746 2.858 6.333.038.035.083.066.122.101q.532.492 1.115.934.061.047.122.096a21 21 0 0 0 1.412.96c1.003.631 2.039 1.19 3.014 1.717a.75.75 0 0 0 .712 0C16.207 19.99 21 17.405 21 11.914V6.22c0-.753-.48-1.42-1.196-1.66m-.304 7.35c0 4.448-3.91 6.701-7.5 8.643v-17q.04 0 .079.012l7.25 2.417a.25.25 0 0 1 .171.237z" clip-rule="evenodd"/></svg>
